contributed-vectors/element.svg

<?xml version="1.0" encoding="UTF-8" standalone="no"?>
<!DOCTYPE svg PUBLIC "-//W3C//DTD SVG 1.1//EN" "http://www.w3.org/Graphics/SVG/1.1/DTD/svg11.dtd">
<svg width="100%" height="100%" viewBox="0 0 192 192" version="1.1" xmlns="http://www.w3.org/2000/svg" xmlns:xlink="http://www.w3.org/1999/xlink" xml:space="preserve" xmlns:serif="http://www.serif.com/" style="fill-rule:evenodd;clip-rule:evenodd;stroke-linejoin:round;stroke-miterlimit:2;">
    <g transform="matrix(1,0,0,1,8,8)">
        <circle cx="88" cy="88" r="88" style="fill:rgb(152,220,154);"/>
    </g>
    <g transform="matrix(5.27777,0,0,5.27777,48.5001,48.5001)">
        <path d="M6.48,1.08C6.48,0.484 6.964,0 7.56,0C11.536,0 14.76,3.224 14.76,7.2C14.76,7.796 14.277,8.28 13.68,8.28C13.084,8.28 12.6,7.796 12.6,7.2C12.6,4.416 10.344,2.16 7.56,2.16C6.964,2.16 6.48,1.676 6.48,1.08Z" style="fill:white;"/>
        <path d="M11.52,16.92C11.52,17.517 11.036,18 10.44,18C6.464,18 3.24,14.776 3.24,10.8C3.24,10.204 3.723,9.72 4.32,9.72C4.916,9.72 5.4,10.204 5.4,10.8C5.4,13.584 7.656,15.84 10.44,15.84C11.036,15.84 11.52,16.323 11.52,16.92Z" style="fill:white;"/>
        <path d="M1.08,11.52C0.484,11.52 0,11.037 0,10.44C0,6.464 3.224,3.24 7.2,3.24C7.796,3.24 8.28,3.724 8.28,4.32C8.28,4.916 7.796,5.4 7.2,5.4C4.416,5.4 2.16,7.657 2.16,10.44C2.16,11.037 1.676,11.52 1.08,11.52Z" style="fill:white;"/>
        <path d="M16.92,6.48C17.516,6.48 18,6.964 18,7.56C18,11.536 14.776,14.76 10.8,14.76C10.204,14.76 9.72,14.277 9.72,13.68C9.72,13.084 10.204,12.6 10.8,12.6C13.584,12.6 15.84,10.344 15.84,7.56C15.84,6.964 16.323,6.48 16.92,6.48Z" style="fill:white;"/>
    </g>
</svg>

<svg xmlns="http://www.w3.org/2000/svg" xml:space="preserve" style="fill-rule:evenodd;clip-rule:evenodd;stroke-linejoin:round;stroke-miterlimit:2" viewBox="0 0 192 192"><circle cx="88" cy="88" r="88" style="fill:#98dc9a" transform="translate(8 8)"/><path d="M6.48 1.08C6.48.484 6.964 0 7.56 0a7.2 7.2 0 0 1 7.2 7.2 1.08 1.08 0 1 1-2.16 0 5.04 5.04 0 0 0-5.04-5.04 1.08 1.08 0 0 1-1.08-1.08ZM11.52 16.92A1.08 1.08 0 0 1 10.44 18a7.2 7.2 0 0 1-7.2-7.2 1.08 1.08 0 1 1 2.16 0 5.04 5.04 0 0 0 5.04 5.04c.596 0 1.08.483 1.08 1.08ZM1.08 11.52A1.08 1.08 0 0 1 0 10.44a7.2 7.2 0 0 1 7.2-7.2 1.08 1.08 0 0 1 0 2.16 5.04 5.04 0 0 0-5.04 5.04 1.08 1.08 0 0 1-1.08 1.08ZM16.92 6.48c.596 0 1.08.484 1.08 1.08a7.2 7.2 0 0 1-7.2 7.2 1.08 1.08 0 1 1 0-2.16 5.04 5.04 0 0 0 5.04-5.04c0-.596.483-1.08 1.08-1.08Z" style="fill:#fff" transform="translate(48.5 48.5) scale(5.27777)"/></svg>
